X:3536
L:1/8
M:2/2
K:A
 A,>CE>C D<F E2 | FB(B>c) (d/c/)(B/A/) G/F/E/D/ | C>DE>C DF E2 | F>B A/G/F/E/{G} A2 A2 :| 
 c>eA>e c>e (d/c/).B/.A/ | G>BE>B G>BE>d | c>eA>e c>e (d/c/).B/.A/ | F>B A/G/F/E/{G} A2 A,2 | 
 c<eA>e .c/.e/.f/.g/ a z/ A/ | G<BB>c (d/c/).B/.A/ (G/F/).E/.D/ | C>DEC D<F E2 | 
 F>B (A/G/).F/.E/{G} A2 A2 |]

